X:113
T: AUF DEM MEER BIN ICH GEBOREN
N: B0601
O: Europa, Mitteleuropa, Deutschland
R: Staende -, Seemanns - Lied
M: 3/4
L: 1/16
K: C
E3D | C4G,2E,2F,G,A,B, | C2E,2G,4
G,A,B,C | D6EDD2A,B, | C4z4
D3E | F4D4CB,A,G, | G,2E2C4
D3E | F4D4CB,A,G, | G,2E2C4
C3C | A,2A,F,C4B,2A,2 | G,8
C3E | D4A,4B,2G,2 | C8
C3E | G4G,4E3D | C8

